Yaru++/apps/scalable/com.github.treagod.spectator.svg

<svg height="256" width="256" xmlns="http://www.w3.org/2000/svg" xmlns:xlink="http://www.w3.org/1999/xlink">
  <linearGradient id="linearGradient982" gradientUnits="userSpaceOnUse" x1="152" x2="152" y1="124" y2="236">
    <stop offset="0"/>
    <stop offset="1" stop-opacity="0"/>
  </linearGradient>
  <clipPath id="clipPath999">
    <path d="m152 68c-48.60106 0-88 39.39894-88 88s39.39894 88 88 88 88-39.39894 88-88-39.39894-88-88-88z"/>
  </clipPath>
  <filter id="filter1003" color-interpolation-filters="sRGB" height="1.12" width="1.12" x="-.06" y="-.06">
    <feGaussianBlur stdDeviation="4.4"/>
  </filter>
  <linearGradient id="linearGradient11065" gradientUnits="userSpaceOnUse" x1="-176.2" x2="-80.2" y1="-236.69602" y2="-12.69602">
    <stop offset="0" stop-color="#e6e6e6"/>
    <stop offset="1" stop-color="#d3d3d3"/>
  </linearGradient>
  <filter id="filter11191" color-interpolation-filters="sRGB" height="1.024" width="1.024" x="-.01" y="-.01">
    <feGaussianBlur stdDeviation="1.12"/>
  </filter>
  <filter id="filter11210" color-interpolation-filters="sRGB" height="1.096" width="1.096" x="-.05" y="-.05">
    <feGaussianBlur stdDeviation="4.48"/>
  </filter>
  <circle cx="128.2" cy="128.69601" filter="url(#filter11210)" opacity=".1" r="112"/>
  <circle cx="128.2" cy="126.69601" filter="url(#filter11191)" opacity=".1" r="112"/>
  <circle cx="128.2" cy="124.69601" opacity=".1" r="114"/>
  <circle cx="-128.2" cy="-124.69601" fill="url(#linearGradient11065)" r="112" transform="scale(-1)"/>
  <path d="m16.200002 134.39193a112.5345 112.53445 0 0 0 111.977528 102.30409 112.5345 112.53445 0 0 0 112.02247-102.30409z" fill="#fff" opacity=".25"/>
  <circle cx="127.79564" cy="124.69298" fill="#8ec747" r="88"/>
  <path d="m40.200002 124.69602a88 88 0 0 1 87.999998-88.000006 88 88 0 0 1 88 88.000006z" opacity=".05"/>
  <path clip-path="url(#clipPath999)" d="m152 70c-48.60106 0-88 39.39894-88 88s39.39894 88 88 88 88-39.39894 88-88-39.39894-88-88-88z" fill="none" filter="url(#filter1003)" opacity=".2" stroke="url(#linearGradient982)" stroke-linejoin="round" stroke-width="10" transform="translate(-23.799997 -31.303983)"/>
  <path d="m128.2 12.696014a112 112 0 0 0 -111.999998 112.000006 112 112 0 0 0 .04102 1.16992 112 112 0 0 1 111.958978-111.169926 112 112 0 0 1 111.95898 110.830086 112 112 0 0 0 .041-.83008 112 112 0 0 0 -112-112.000006z" fill="#fff" opacity=".3"/>
  <path d="m128.2 236.69602a112 112 0 0 1 -111.999998-112 112 112 0 0 1 .04102-1.16992 112 112 0 0 0 111.958978 111.16992 112 112 0 0 0 111.95898-110.83008 112 112 0 0 1 .041.83008 112 112 0 0 1 -112 112z" opacity=".2"/>
  <g enable-background="new" transform="matrix(1.1150709 0 0 1.1150709 58.39150371821 53.21088836677)">
    <path d="m64 27.853516a49.323502 34.147099 0 0 0 -49.324219 34.146484 49.323502 34.147099 0 0 0 49.324219 34.146484 49.323502 34.147099 0 0 0 49.32422-34.146484 49.323502 34.147099 0 0 0 -49.32422-34.146484zm.234375 11.380859c16.8934 0 30.589844 9.41705 30.589844 21.03125 0 11.6143-13.696444 21.029297-30.589844 21.029297s-30.587891-9.414997-30.587891-21.029297c0-11.6142 13.694491-21.03125 30.587891-21.03125z" fill="#fafafa" transform="translate(-1.758096 2.105421)"/>
    <path clip-rule="evenodd" d="m62.477207 83.399614c16.8934 0 30.5882-9.4152 30.5882-21.0295 0-11.6142-13.6948-21.0294-30.5882-21.0294s-30.588297 9.4152-30.588297 21.0294c0 11.6143 13.694897 21.0295 30.588297 21.0295z" fill="#8ec747" fill-rule="evenodd"/>
    <ellipse cx="62.24181" cy="62.208305" fill="#fafafa" rx="11.3824" ry="9.48529"/>
  </g>
</svg>

<?xml version="1.0" encoding="UTF-8" standalone="no"?>
<svg
   xmlns:osb="http://www.openswatchbook.org/uri/2009/osb"
   xmlns:dc="http://purl.org/dc/elements/1.1/"
   xmlns:cc="http://creativecommons.org/ns#"
   xmlns:rdf="http://www.w3.org/1999/02/22-rdf-syntax-ns#"
   xmlns:svg="http://www.w3.org/2000/svg"
   xmlns="http://www.w3.org/2000/svg"
   xmlns:xlink="http://www.w3.org/1999/xlink"
   xmlns:sodipodi="http://sodipodi.sourceforge.net/DTD/sodipodi-0.dtd"
   xmlns:inkscape="http://www.inkscape.org/namespaces/inkscape"
   width="256"
   height="256"
   version="1.1"
   id="svg66"
   sodipodi:docname="com.github.treagod.spectator.svg"
   inkscape:version="0.92.4 (5da689c313, 2019-01-14)">
  <metadata
     id="metadata70">
    <rdf:RDF>
      <cc:Work
         rdf:about="">
        <dc:format>image/svg+xml</dc:format>
        <dc:type
           rdf:resource="http://purl.org/dc/dcmitype/StillImage" />
        <dc:title></dc:title>
      </cc:Work>
    </rdf:RDF>
  </metadata>
  <sodipodi:namedview
     pagecolor="#ffffff"
     bordercolor="#666666"
     borderopacity="1"
     objecttolerance="10"
     gridtolerance="10"
     guidetolerance="10"
     inkscape:pageopacity="0"
     inkscape:pageshadow="2"
     inkscape:window-width="1920"
     inkscape:window-height="1016"
     id="namedview68"
     showgrid="false"
     inkscape:zoom="3.2773438"
     inkscape:cx="128"
     inkscape:cy="128"
     inkscape:window-x="0"
     inkscape:window-y="27"
     inkscape:window-maximized="1"
     inkscape:current-layer="svg66" />
  <defs
     id="defs34">
    <linearGradient
       id="linearGradient5606"
       osb:paint="solid">
      <stop
         id="stop5608"
         offset="0"
         style="stop-color:#000000" />
    </linearGradient>
    <linearGradient
       id="linearGradient4526"
       osb:paint="solid">
      <stop
         id="stop4528"
         offset="0"
         style="stop-color:#ffffff" />
    </linearGradient>
    <linearGradient
       id="linearGradient3600-4"
       osb:paint="gradient">
      <stop
         id="stop3602-7"
         offset="0"
         style="stop-color:#f4f4f4" />
      <stop
         id="stop3604-6"
         offset="1"
         style="stop-color:#dbdbdb" />
    </linearGradient>
    <linearGradient
       id="linearGradient955"
       x1="200"
       x2="200"
       y1="268"
       y2="44"
       gradientTransform="translate(-23.799997,-31.303983)"
       gradientUnits="userSpaceOnUse"
       xlink:href="#linearGradient945" />
    <linearGradient
       id="linearGradient945">
      <stop
         id="stop943"
         offset="0"
         style="stop-color:#e6e6e6" />
      <stop
         id="stop941"
         offset="1"
         style="stop-color:#d3d3d3" />
    </linearGradient>
    <linearGradient
       id="linearGradient1035"
       x1="152"
       x2="152"
       y1="100"
       y2="212"
       gradientTransform="translate(-23.799997,-31.303983)"
       gradientUnits="userSpaceOnUse"
       xlink:href="#linearGradient1033" />
    <linearGradient
       id="linearGradient1033">
      <stop
         style="stop-color:#000000;stop-opacity:0"
         id="stop1029"
         offset="0" />
      <stop
         id="stop1037"
         offset=".5"
         style="stop-color:#000000" />
      <stop
         style="stop-color:#000000;stop-opacity:0"
         id="stop1031"
         offset="1" />
    </linearGradient>
    <filter
       style="color-interpolation-filters:sRGB"
       id="filter1025"
       width="1.048"
       height="1.048"
       x="-.02"
       y="-.02">
      <feGaussianBlur
         id="feGaussianBlur1027"
         stdDeviation="1.5" />
    </filter>
    <linearGradient
       id="linearGradient982"
       x1="152"
       x2="152"
       y1="124"
       y2="236"
       gradientUnits="userSpaceOnUse"
       xlink:href="#linearGradient980" />
    <linearGradient
       id="linearGradient980">
      <stop
         style="stop-color:#000000"
         id="stop976"
         offset="0" />
      <stop
         style="stop-color:#000000;stop-opacity:0"
         id="stop978"
         offset="1" />
    </linearGradient>
    <clipPath
       id="clipPath999"
       clipPathUnits="userSpaceOnUse">
      <path
         style="fill:#5d5d5d"
         d="m 152,68 c -48.60106,0 -88,39.39894 -88,88 0,48.60106 39.39894,88 88,88 48.60106,0 88,-39.39894 88,-88 0,-48.60106 -39.39894,-88 -88,-88 z"
         id="path24" />
    </clipPath>
    <filter
       style="color-interpolation-filters:sRGB"
       id="filter1003"
       width="1.12"
       height="1.12"
       x="-.06"
       y="-.06">
      <feGaussianBlur
         id="feGaussianBlur1005"
         stdDeviation="4.4" />
    </filter>
    <linearGradient
       id="linearGradient11065"
       x1="104"
       x2="200"
       y1="44"
       y2="268"
       gradientTransform="translate(-280.2,-280.69602)"
       gradientUnits="userSpaceOnUse"
       xlink:href="#linearGradient945" />
    <filter
       style="color-interpolation-filters:sRGB"
       id="filter11191"
       width="1.024"
       height="1.024"
       x="-.01"
       y="-.01">
      <feGaussianBlur
         id="feGaussianBlur11193"
         stdDeviation="1.12" />
    </filter>
    <filter
       style="color-interpolation-filters:sRGB"
       id="filter11210"
       width="1.096"
       height="1.096"
       x="-.05"
       y="-.05">
      <feGaussianBlur
         id="feGaussianBlur11212"
         stdDeviation="4.48" />
    </filter>
    <radialGradient
       gradientTransform="matrix(0,25.311449,-31.074374,0,372.78533,-255.44129)"
       gradientUnits="userSpaceOnUse"
       xlink:href="#linearGradient2867-449-88-871-390-598-476-591-434-148-57-177-8-3-3-6-4-8-8-8-5-7-8"
       id="radialGradient3936-3"
       fy="9.9571075"
       fx="7.1183534"
       r="8.9330635"
       cy="9.9571075"
       cx="7.1183534" />
    <linearGradient
       id="linearGradient2867-449-88-871-390-598-476-591-434-148-57-177-8-3-3-6-4-8-8-8-5-7-8">
      <stop
         offset="0"
         style="stop-color:#404648;stop-opacity:1"
         id="stop3750-1-0-7-6-6-1-3-9-3-9-2" />
      <stop
         offset="1"
         style="stop-color:#0c1011;stop-opacity:1"
         id="stop3754-1-8-5-2-7-6-7-1-9-1-0" />
    </linearGradient>
    <linearGradient
       id="linearGradient950">
      <stop
         offset="0"
         id="stop946"
         style="stop-color:#9a9996" />
      <stop
         offset="1"
         id="stop948"
         style="stop-color:#77767b" />
    </linearGradient>
    <linearGradient
       xlink:href="#linearGradient950"
       gradientUnits="userSpaceOnUse"
       gradientTransform="matrix(1.8293937,-0.81599442,0.81599442,1.8293937,-3645.9624,100.02949)"
       y2="812.882"
       y1="806.297"
       x2="1662.99"
       x1="1660.857"
       id="linearGradient1001" />
    <clipPath
       clipPathUnits="userSpaceOnUse"
       id="clipPath5154">
      <circle
         id="circle7"
         style="fill:url(#radialGradient5158)"
         r="109.647"
         cy="924.362"
         cx="128" />
    </clipPath>
    <clipPath
       clipPathUnits="userSpaceOnUse"
       id="clipPath977">
      <circle
         id="circle10"
         style="fill:url(#radialGradient5158)"
         r="109.647"
         cy="924.362"
         cx="128" />
    </clipPath>
    <clipPath
       clipPathUnits="userSpaceOnUse"
       id="clipPath4688">
      <path
         id="path13"
         style="fill:url(#radialGradient4692);stroke:#a7003f;stroke-linecap:round;stroke-linejoin:round"
         d="m 106.42383,889.60156 c -2.2448,-0.0524 -4.09304,1.75264 -4.09375,3.99805 v 32.64453 32.64453 c -4e-5,3.07923 3.33305,5.004 6,3.46485 l 28.26953,-16.32227 28.27148,-16.32227 c 2.66559,-1.54001 2.66559,-5.38772 0,-6.92773 l -28.27148,-16.32227 -28.26953,-16.32226 c -0.58054,-0.3353 -1.23603,-0.51932 -1.90625,-0.53516 z" />
    </clipPath>
    <clipPath
       clipPathUnits="userSpaceOnUse"
       id="clipPath4564">
      <circle
         id="circle16"
         style="fill:url(#radialGradient4568)"
         r="109.647"
         cy="924.362"
         cx="128" />
    </clipPath>
    <clipPath
       clipPathUnits="userSpaceOnUse"
       id="clipPath6215">
      <path
         id="path19"
         style="fill:url(#radialGradient6219)"
         d="m 105.17325,806.18572 c -3.06859,0.56361 -6.11393,1.24721 -9.129005,2.04923 -3.838255,1.06506 -7.62084,2.32142 -11.333578,3.76438 -3.712189,1.44307 -7.34989,3.07087 -10.899472,4.87732 -3.549153,1.80656 -7.005749,3.78947 -10.35684,5.94129 -3.351877,2.15253 -6.593991,4.47137 -9.714191,6.94783 -3.119992,2.47544 -6.114241,5.10535 -8.971529,7.87988 -0.367219,0.38909 -0.731819,0.78065 -1.093777,1.17464 2.60205,17.85956 16.832359,40.03752 30.863064,55.74236 -4.76734,8.84435 -7.265993,18.73329 -7.272057,28.78068 0.02104,2.87431 0.246096,5.7435 0.673482,8.58593 -20.257302,-9.18513 -43.077023,-26.53494 -52.798465,-47.36396 -0.440667,1.15171 -0.863474,2.31018 -1.268271,3.47498 -1.176789,3.80495 -2.162562,7.66637 -2.953625,11.56979 -0.79154,3.90311 -1.3874065,7.84335 -1.7853678,11.80598 -0.39733,3.96334 -0.5961891,7.94407 -0.5958321,11.92728 -4.394e-4,2.81936 0.098928,5.63785 0.2979155,8.45018 0.282275,3.97319 0.763088,7.92978 1.4406374,11.85493 0.625626,3.51826 1.408798,7.00668 2.347153,10.45473 16.778133,6.68355 43.114514,5.45001 63.748015,1.14301 6.818545,11.02763 16.987182,19.58379 29.018153,24.41667 -18.071844,12.93645 -44.490188,24.02095 -67.37308,22.03245 1.384097,1.665 2.813203,3.2921 4.285735,4.8794 2.774977,2.8571 5.691103,5.5737 8.737453,8.1395 3.046107,2.5658 6.218619,4.9777 9.505651,7.2266 3.287242,2.2488 6.684891,4.3319 10.180217,6.2413 3.495379,1.9096 7.084075,3.6433 10.752641,5.1944 3.66896,1.5509 7.413193,2.9174 11.218668,4.0942 1.438565,0.3959 2.884421,0.7648 4.336807,1.1066 14.138748,-11.1844 26.206378,-34.5828 32.780368,-54.56406 12.95816,-0.38251 25.45395,-4.90132 35.65955,-12.89544 2.15922,22.12638 -1.46693,50.5581 -14.64692,69.3832 3.06859,-0.5636 6.11393,-1.2473 9.129,-2.0493 3.83826,-1.0651 7.62084,-2.3214 11.33358,-3.7644 3.71219,-1.4431 7.34989,-3.0709 10.89947,-4.8773 3.54915,-1.8066 7.00575,-3.7895 10.35684,-5.9413 3.35188,-2.1525 6.59399,-4.4714 9.71419,-6.9478 3.11999,-2.4754 6.11424,-5.1054 8.97153,-7.8799 0.36722,-0.3891 0.73182,-0.7806 1.09378,-1.1746 -2.60204,-17.85957 -16.83236,-40.03755 -30.86307,-55.74238 4.76735,-8.84435 7.266,-18.7333 7.27207,-28.78069 -0.021,-2.8743 -0.24611,-5.74349 -0.6735,-8.58592 20.25731,9.18513 43.07704,26.53494 52.79848,47.36396 0.44067,-1.15171 0.86347,-2.31018 1.26827,-3.47499 1.17679,-3.80495 2.16256,-7.66636 2.95362,-11.56978 0.79154,-3.90311 1.38741,-7.84335 1.78537,-11.80598 0.39733,-3.96334 0.59619,-7.94408 0.59583,-11.92729 4.4e-4,-2.81936 -0.0989,-5.63784 -0.29791,-8.45017 -0.28228,-3.97319 -0.76309,-7.92978 -1.44064,-11.85493 -0.62776,-3.53416 -1.41449,-7.03823 -2.35779,-10.50154 -20.56165,-7.32804 -45.89823,-4.79548 -63.74906,-1.11372 -6.81835,-11.01918 -16.98234,-19.56874 -29.00647,-24.39915 18.07184,-12.93645 44.49019,-24.02091 67.37307,-22.03241 -1.38409,-1.66502 -2.8132,-3.2921 -4.28573,-4.87944 -2.77498,-2.85712 -5.6911,-5.57368 -8.73745,-8.13949 -3.04611,-2.56581 -6.21862,-4.97769 -9.50565,-7.22659 -3.28724,-2.24885 -6.68489,-4.3319 -10.18022,-6.24135 -3.49538,-1.90963 -7.08407,-3.64325 -10.75264,-5.19438 -3.66896,-1.55092 -7.41319,-2.91736 -11.21867,-4.09421 -1.42662,-0.39262 -2.86041,-0.75869 -4.30063,-1.09804 -14.14688,11.18369 -26.2293,34.57475 -32.8107,54.55552 -12.96018,0.38127 -25.4582,4.90015 -35.665394,12.89544 -2.15922,-22.12637 1.466931,-50.55807 14.646924,-69.38315 z" />
    </clipPath>
    <linearGradient
       gradientUnits="userSpaceOnUse"
       gradientTransform="matrix(117.16873,0,0,110.27645,69.41563,62.390233)"
       y2="1"
       y1="0"
       x2="0"
       x1="0"
       id="_lgradient_78">
      <stop
         style="stop-color:#1fd1b0"
         offset="0%"
         id="stop51" />
      <stop
         style="stop-color:#00ffaa"
         offset="100%"
         id="stop53" />
    </linearGradient>
    <linearGradient
       gradientUnits="userSpaceOnUse"
       gradientTransform="matrix(108,0,0,108,10.00011,7.9999983)"
       y2="1"
       y1="0"
       x2="0"
       x1="0"
       id="_lgradient_139">
      <stop
         id="stop948-3"
         style="stop-color:#ee00ff"
         offset="0%" />
      <stop
         id="stop950"
         style="stop-color:#9914dc"
         offset="100%" />
    </linearGradient>
    <linearGradient
       gradientTransform="translate(-129.37186,16.700018)"
       gradientUnits="userSpaceOnUse"
       y2="125.206"
       x2="64.5"
       y1="3.7941401"
       x1="64.5"
       id="paint0_linear">
      <stop
         id="stop22"
         stop-color="#B9E968" />
      <stop
         id="stop24"
         stop-opacity="0"
         stop-color="white"
         offset="1" />
    </linearGradient>
    <linearGradient
       gradientTransform="translate(-138.86887,-3.462857)"
       gradientUnits="userSpaceOnUse"
       y2="113.836"
       x2="64.735298"
       y1="11.6933"
       x1="64.735298"
       id="paint1_linear">
      <stop
         id="stop27"
         stop-color="#B9E968" />
      <stop
         id="stop29"
         stop-opacity="0"
         stop-color="white"
         offset="1" />
    </linearGradient>
    <linearGradient
       gradientTransform="translate(-2.2580897,-0.3945859)"
       gradientUnits="userSpaceOnUse"
       y2="113.836"
       x2="64.735298"
       y1="11.6933"
       x1="64.735298"
       id="paint1_linear-3">
      <stop
         id="stop27-6"
         stop-color="#B9E968" />
      <stop
         id="stop29-7"
         stop-opacity="0"
         stop-color="white"
         offset="1" />
    </linearGradient>
  </defs>
  <circle
     style="opacity:0.1;filter:url(#filter11210)"
     cx="128.2"
     cy="128.69601"
     r="112"
     id="circle36" />
  <circle
     style="opacity:0.1;filter:url(#filter11191)"
     cx="128.2"
     cy="126.69601"
     r="112"
     id="circle38" />
  <circle
     style="opacity:0.1"
     cx="128.2"
     cy="124.69601"
     r="114"
     id="circle40" />
  <circle
     style="fill:url(#linearGradient11065)"
     cx="-128.2"
     cy="-124.69601"
     r="112"
     transform="scale(-1)"
     id="circle42" />
  <path
     style="opacity:0.25;fill:#ffffff"
     d="M 16.200002,134.39193 A 112.5345,112.53445 0 0 0 128.17753,236.69602 112.5345,112.53445 0 0 0 240.2,134.39193 Z"
     id="path44"
     inkscape:connector-curvature="0" />
  <circle
     style="opacity:1;fill:#8ec747;fill-opacity:1;stroke:none;stroke-width:6.04503012"
     id="path952"
     cx="127.79564"
     cy="124.69298"
     r="88" />
  <path
     style="opacity:0.05"
     d="M 40.200002,124.69602 A 88,88 0 0 1 128.2,36.696014 a 88,88 0 0 1 88,88.000006 z"
     id="path48"
     inkscape:connector-curvature="0" />
  <path
     style="opacity:0.2;fill:none;stroke:url(#linearGradient982);stroke-width:10;stroke-linejoin:round;filter:url(#filter1003)"
     d="m 152,70 c -48.60106,0 -88,39.39894 -88,88 0,48.60106 39.39894,88 88,88 48.60106,0 88,-39.39894 88,-88 0,-48.60106 -39.39894,-88 -88,-88 z"
     clip-path="url(#clipPath999)"
     transform="translate(-23.799997,-31.303983)"
     id="path50"
     inkscape:connector-curvature="0" />
  <path
     style="opacity:0.3;fill:#ffffff"
     d="M 128.2,12.696014 A 112,112 0 0 0 16.200002,124.69602 112,112 0 0 0 16.241022,125.86594 112,112 0 0 1 128.2,14.696014 112,112 0 0 1 240.15898,125.5261 a 112,112 0 0 0 0.041,-0.83008 112,112 0 0 0 -112,-112.000006 z"
     id="path62"
     inkscape:connector-curvature="0" />
  <path
     style="opacity:0.2"
     d="m 128.2,236.69602 a 112,112 0 0 1 -111.999998,-112 112,112 0 0 1 0.04102,-1.16992 A 112,112 0 0 0 128.2,234.69602 112,112 0 0 0 240.15898,123.86594 a 112,112 0 0 1 0.041,0.83008 112,112 0 0 1 -112,112 z"
     id="path64"
     inkscape:connector-curvature="0" />
  <g
     style="enable-background:new"
     id="g950"
     transform="matrix(1.1150709,0,0,1.1150709,-172.29572,32.065955)">
    <g
       transform="translate(-84.160481,31.504788)"
       id="g888" />
    <g
       transform="translate(0.29222607,0.33770214)"
       id="g1590-6">
      <g
         transform="translate(206.58899,18.625158)"
         id="g937">
        <path
           id="ellipse14-5"
           transform="translate(-1.758096,2.1054208)"
           d="M 64,27.853516 A 49.323502,34.147099 0 0 0 14.675781,62 49.323502,34.147099 0 0 0 64,96.146484 49.323502,34.147099 0 0 0 113.32422,62 49.323502,34.147099 0 0 0 64,27.853516 Z m 0.234375,11.380859 c 16.8934,0 30.589844,9.41705 30.589844,21.03125 0,11.6143 -13.696444,21.029297 -30.589844,21.029297 -16.8934,0 -30.587891,-9.414997 -30.587891,-21.029297 0,-11.6142 13.694491,-21.03125 30.587891,-21.03125 z"
           style="fill:#fafafa;enable-background:new"
           inkscape:connector-curvature="0" />
        <path
           inkscape:connector-curvature="0"
           style="clip-rule:evenodd;fill:#8ec747;fill-rule:evenodd;enable-background:new"
           d="m 62.477207,83.399614 c 16.8934,0 30.5882,-9.4152 30.5882,-21.0295 0,-11.6142 -13.6948,-21.0294 -30.5882,-21.0294 -16.8934,0 -30.588297,9.4152 -30.588297,21.0294 0,11.6143 13.694897,21.0295 30.588297,21.0295 z"
           id="path16-3" />
        <ellipse
           style="fill:#fafafa;enable-background:new"
           cx="62.24181"
           cy="62.208305"
           rx="11.3824"
           ry="9.4852896"
           id="ellipse20-6" />
      </g>
    </g>
  </g>
</svg>
